X:1
T:Non fia piu ver III
T:Benedetto Ferrari
T:Source : Musiche Varie a voce sola---Libro primo---Venetia---B.Magni---1633. Editor : André Vierendeels (31/12/16).
T:Notes Original clefs : C4, F4 Editorial accidentals above the staff Figures in BC are notated in original print See also "E se mai l'empio"(B.Ferrari) with ca. the same BC
T:Non fia piu ver III
T:©
T:©
C:Benedetto Ferrari
Z:©
%%score 1 2
L:1/8
Q:1/4=91
M:4/4
K:C
V:1 treble-8 nm="Tenor" snm="T"
V:2 bass nm="MusicXML Part"
V:1
 e8- | e6- e/ E/^F/^G/ | A/B/c/d/ e/^f/^g/a/ z BB^c | A8 | z4 z EEF | D4 c<_B c<A | %6
w: Non,|_ _ _ _ _|* * * * * * * * non fia piu|ver,|non fia piu|ver che _ que _|
 _B<A B<G B<G A<F | f/e/d/c/ d/c/B/A/ G4 | F4 F3 F | F3 F/E/ E/F/ G3 | G2 z2 G4- | G2 G2 G2 z G | %12
w: gli'em- * pi _ splen- * * *|* * * * * * * * do-|ri Cli- tia|mi- ri del vol- * *|to A-|* qui- la as-|
 G3 ^F- G4 | z8 | D/E/F/G/ AB/^c/ dB e2- | e2 ^GG A3 A | z2 B/A/B/c/ d/G/A/B/ c/B/c/d/ | %17
w: tron- ti, _||son _ _ _ _ _ _ _ per not-|* to- l'e Gu- si|om- * * * * * * * * * * *|
 e/c/d/e/ B/c/d/e/ f/g/a DD | D4 C4 | z2 dd d3 d/c/ | d3 e/f/ d4 | %21
w: * * * * * * * * * * * br'e d'or-|ro- ri,|son per not- to- l'e|Gu- * * si|
 G/^F/E/F/ G/A/B/^c/ dD/E/ F/G/A/B/ |"^#" c/d/e/f/ gC z/ e/f/e/ d/c/B/A/ | ^G2 A2 TA3 G | A8 |] %25
w: om- * * * * * * * * * * * * * *|* * * * * br'e d'or- * * * * * *|* * ro- *|ri.|
V:2
"^BC""^-natural" A,6 D,2 |"^-natural" E,6 ^C,2 | F,2 D,2 E,4 |"^#" A,,4 ^F,4 | _B,2 G,2 A,4 | %5
 D,3 E, F,2 ^F,2 |"^b" G,2 E,2 F,2 A,,2 | _B,,2 =B,,2 C,4 | F,,2 F,4 E,2 | D,4 C,2 C,2- | %10
 C,2 D,2 E,2 ^F,2 | G,3 A,, B,,2 C,2 | D,4 G,,2 G,2- | G,2 F,2 E,4 | D,2 D,4 C,2 | B,,4 A,,2 A,2- | %16
 A,2 G,4 F,2- | F,2 G,2 A,2 F,2 | G,4 C,2 C,2- |"^-natural" C,2 B,,2 A,,4 | G,,4 F,,4 | E,,4 D,,4 | %22
 C,,4 D,,3 E,, | F,,2 D,,2 E,,4 | A,,8 |] %25

